src/lib/images/svgs/icon-sound-card.svg

<?xml version="1.0" encoding="UTF-8"?> <svg xmlns="http://www.w3.org/2000/svg" xmlns:xlink="http://www.w3.org/1999/xlink" width="64px" height="64px" viewBox="0 0 64 64" version="1.1"> <g id="surface1"> <path style=" stroke:none;fill-rule:evenodd;fill:rgb(93.72549%,26.666667%,26.666667%);fill-opacity:1;" d="M 50.453125 36.519531 L 31.515625 36.519531 C 31.183594 36.519531 30.917969 36.25 30.917969 35.921875 L 30.917969 32.601562 C 30.917969 32.273438 31.183594 32 31.515625 32 L 50.457031 32 C 50.789062 32 51.058594 32.273438 51.058594 32.601562 L 51.058594 35.921875 C 51.054688 36.25 50.789062 36.519531 50.453125 36.519531 Z M 32.117188 35.320312 L 49.851562 35.320312 L 49.851562 33.199219 L 32.117188 33.199219 Z M 32.117188 35.320312 "/> <path style=" stroke:none;fill-rule:evenodd;fill:rgb(93.72549%,26.666667%,26.666667%);fill-opacity:1;" d="M 48.957031 33.195312 C 48.164062 33.195312 48.359375 32.144531 48.359375 31.296875 C 48.359375 30.507812 49.558594 30.507812 49.558594 31.296875 C 49.558594 32.15625 49.75 33.195312 48.957031 33.195312 Z M 48.957031 33.195312 "/> <path style=" stroke:none;fill-rule:evenodd;fill:rgb(93.72549%,26.666667%,26.666667%);fill-opacity:1;" d="M 46.300781 33.195312 C 45.507812 33.195312 45.699219 32.144531 45.699219 31.296875 C 45.699219 30.507812 46.898438 30.507812 46.898438 31.296875 C 46.898438 32.15625 47.09375 33.195312 46.300781 33.195312 Z M 46.300781 33.195312 "/> <path style=" stroke:none;fill-rule:evenodd;fill:rgb(93.72549%,26.666667%,26.666667%);fill-opacity:1;" d="M 43.640625 33.195312 C 42.847656 33.195312 43.042969 32.144531 43.042969 31.296875 C 43.042969 30.507812 44.242188 30.507812 44.242188 31.296875 C 44.242188 32.15625 44.433594 33.195312 43.640625 33.195312 Z M 43.640625 33.195312 "/> <path style=" stroke:none;fill-rule:evenodd;fill:rgb(93.72549%,26.666667%,26.666667%);fill-opacity:1;" d="M 40.984375 33.195312 C 40.191406 33.195312 40.382812 32.144531 40.382812 31.296875 C 40.382812 30.507812 41.582031 30.507812 41.582031 31.296875 C 41.582031 32.15625 41.777344 33.195312 40.984375 33.195312 Z M 40.984375 33.195312 "/> <path style=" stroke:none;fill-rule:evenodd;fill:rgb(93.72549%,26.666667%,26.666667%);fill-opacity:1;" d="M 38.324219 33.195312 C 37.53125 33.195312 37.726562 32.144531 37.726562 31.296875 C 37.726562 30.507812 38.925781 30.507812 38.925781 31.296875 C 38.925781 32.15625 39.117188 33.195312 38.324219 33.195312 Z M 38.324219 33.195312 "/> <path style=" stroke:none;fill-rule:evenodd;fill:rgb(93.72549%,26.666667%,26.666667%);fill-opacity:1;" d="M 35.667969 33.195312 C 34.875 33.195312 35.066406 32.144531 35.066406 31.296875 C 35.066406 30.507812 36.265625 30.507812 36.265625 31.296875 C 36.265625 32.15625 36.460938 33.195312 35.667969 33.195312 Z M 35.667969 33.195312 "/> <path style=" stroke:none;fill-rule:evenodd;fill:rgb(93.72549%,26.666667%,26.666667%);fill-opacity:1;" d="M 33.007812 33.195312 C 32.214844 33.195312 32.410156 32.144531 32.410156 31.296875 C 32.410156 30.507812 33.609375 30.507812 33.609375 31.296875 C 33.609375 32.15625 33.800781 33.195312 33.007812 33.195312 Z M 33.007812 33.195312 "/> <path style=" stroke:none;fill-rule:evenodd;fill:rgb(93.72549%,26.666667%,26.666667%);fill-opacity:1;" d="M 48.957031 37.820312 C 48.164062 37.820312 48.359375 36.765625 48.359375 35.921875 C 48.359375 35.132812 49.558594 35.132812 49.558594 35.921875 C 49.558594 36.78125 49.75 37.820312 48.957031 37.820312 Z M 48.957031 37.820312 "/> <path style=" stroke:none;fill-rule:evenodd;fill:rgb(93.72549%,26.666667%,26.666667%);fill-opacity:1;" d="M 46.300781 37.820312 C 45.507812 37.820312 45.699219 36.765625 45.699219 35.921875 C 45.699219 35.132812 46.898438 35.132812 46.898438 35.921875 C 46.898438 36.78125 47.09375 37.820312 46.300781 37.820312 Z M 46.300781 37.820312 "/> <path style=" stroke:none;fill-rule:evenodd;fill:rgb(93.72549%,26.666667%,26.666667%);fill-opacity:1;" d="M 43.640625 37.820312 C 42.847656 37.820312 43.042969 36.765625 43.042969 35.921875 C 43.042969 35.132812 44.242188 35.132812 44.242188 35.921875 C 44.242188 36.78125 44.433594 37.820312 43.640625 37.820312 Z M 43.640625 37.820312 "/> <path style=" stroke:none;fill-rule:evenodd;fill:rgb(93.72549%,26.666667%,26.666667%);fill-opacity:1;" d="M 40.984375 37.820312 C 40.191406 37.820312 40.382812 36.765625 40.382812 35.921875 C 40.382812 35.132812 41.582031 35.132812 41.582031 35.921875 C 41.582031 36.78125 41.777344 37.820312 40.984375 37.820312 Z M 40.984375 37.820312 "/> <path style=" stroke:none;fill-rule:evenodd;fill:rgb(93.72549%,26.666667%,26.666667%);fill-opacity:1;" d="M 38.324219 37.820312 C 37.53125 37.820312 37.726562 36.765625 37.726562 35.921875 C 37.726562 35.132812 38.925781 35.132812 38.925781 35.921875 C 38.925781 36.78125 39.117188 37.820312 38.324219 37.820312 Z M 38.324219 37.820312 "/> <path style=" stroke:none;fill-rule:evenodd;fill:rgb(93.72549%,26.666667%,26.666667%);fill-opacity:1;" d="M 35.667969 37.820312 C 34.875 37.820312 35.066406 36.765625 35.066406 35.921875 C 35.066406 35.132812 36.265625 35.132812 36.265625 35.921875 C 36.265625 36.78125 36.460938 37.820312 35.667969 37.820312 Z M 35.667969 37.820312 "/> <path style=" stroke:none;fill-rule:evenodd;fill:rgb(93.72549%,26.666667%,26.666667%);fill-opacity:1;" d="M 33.007812 37.820312 C 32.214844 37.820312 32.410156 36.765625 32.410156 35.921875 C 32.410156 35.132812 33.609375 35.132812 33.609375 35.921875 C 33.609375 36.78125 33.800781 37.820312 33.007812 37.820312 Z M 33.007812 37.820312 "/> <path style=" stroke:none;fill-rule:evenodd;fill:rgb(93.72549%,26.666667%,26.666667%);fill-opacity:1;" d="M 53.761719 43.179688 L 21.503906 43.179688 C 21.230469 43.179688 20.988281 42.992188 20.921875 42.71875 L 19.855469 38.339844 L 11.792969 38.339844 C 11.460938 38.339844 11.191406 38.070312 11.191406 37.742188 L 11.191406 9.796875 C 11.191406 9.460938 11.460938 9.195312 11.792969 9.195312 L 53.761719 9.195312 C 54.089844 9.195312 54.363281 9.460938 54.363281 9.796875 L 54.363281 42.578125 C 54.363281 42.910156 54.089844 43.179688 53.761719 43.179688 Z M 21.976562 41.980469 L 53.164062 41.980469 L 53.164062 10.394531 L 12.390625 10.394531 L 12.390625 37.140625 L 20.328125 37.140625 C 20.605469 37.140625 20.847656 37.332031 20.914062 37.601562 Z M 21.976562 41.980469 "/> <path style=" stroke:none;fill-rule:evenodd;fill:rgb(93.72549%,26.666667%,26.666667%);fill-opacity:1;" d="M 11.789062 43.914062 C 11.453125 43.914062 11.1875 43.640625 11.1875 43.3125 L 11.1875 5.984375 L 7 5.984375 C 6.210938 5.984375 6.210938 4.78125 7 4.78125 L 11.789062 4.78125 C 12.121094 4.78125 12.386719 5.050781 12.386719 5.382812 L 12.386719 43.3125 C 12.386719 43.640625 12.121094 43.910156 11.789062 43.910156 Z M 11.789062 43.914062 "/> <path style=" stroke:none;fill-rule:evenodd;fill:rgb(93.72549%,26.666667%,26.666667%);fill-opacity:1;" d="M 39.199219 25.742188 C 38.859375 25.742188 35.195312 23.65625 34.59375 23.332031 C 34.394531 23.230469 34.273438 23.023438 34.273438 22.804688 L 34.273438 17.191406 C 34.273438 16.96875 34.394531 16.765625 34.59375 16.660156 L 38.917969 14.324219 C 39.316406 14.109375 39.800781 14.394531 39.800781 14.855469 L 39.800781 25.140625 C 39.800781 25.472656 39.535156 25.742188 39.199219 25.742188 Z M 35.476562 22.445312 L 38.601562 24.132812 L 38.601562 15.859375 L 35.476562 17.546875 Z M 35.476562 22.445312 "/> <path style=" stroke:none;fill-rule:evenodd;fill:rgb(93.72549%,26.666667%,26.666667%);fill-opacity:1;" d="M 34.875 23.402344 L 32.21875 23.402344 C 31.882812 23.402344 31.617188 23.136719 31.617188 22.804688 L 31.617188 17.191406 C 31.617188 16.859375 31.882812 16.589844 32.21875 16.589844 L 34.875 16.589844 C 35.203125 16.589844 35.476562 16.859375 35.476562 17.191406 L 35.476562 22.804688 C 35.476562 23.132812 35.207031 23.402344 34.875 23.402344 Z M 32.816406 22.203125 L 34.273438 22.203125 L 34.273438 17.792969 L 32.816406 17.792969 Z M 32.816406 22.203125 "/> <path style=" stroke:none;fill-rule:evenodd;fill:rgb(93.72549%,26.666667%,26.666667%);fill-opacity:1;" d="M 43.875 25.507812 C 43.339844 25.507812 43.074219 24.863281 43.449219 24.484375 C 45.9375 21.972656 45.925781 17.984375 43.449219 15.507812 C 42.894531 14.953125 43.734375 14.097656 44.300781 14.660156 C 47.226562 17.558594 47.269531 22.300781 44.300781 25.324219 C 44.179688 25.449219 44.027344 25.507812 43.875 25.507812 Z M 43.875 25.507812 "/> <path style=" stroke:none;fill-rule:evenodd;fill:rgb(93.72549%,26.666667%,26.666667%);fill-opacity:1;" d="M 41.921875 23.554688 C 41.386719 23.554688 41.121094 22.90625 41.496094 22.527344 C 42.898438 21.113281 42.898438 18.863281 41.496094 17.460938 C 40.941406 16.90625 41.78125 16.054688 42.347656 16.613281 C 44.207031 18.457031 44.21875 21.503906 42.347656 23.378906 C 42.230469 23.496094 42.074219 23.554688 41.921875 23.554688 Z M 41.921875 23.554688 "/> <path style=" stroke:none;fill-rule:evenodd;fill:rgb(93.72549%,26.666667%,26.666667%);fill-opacity:1;" d="M 19.476562 18.523438 L 16.316406 18.523438 C 15.984375 18.523438 15.714844 18.257812 15.714844 17.925781 L 15.714844 13.832031 C 15.714844 13.5 15.984375 13.234375 16.316406 13.234375 L 19.476562 13.234375 C 19.808594 13.234375 20.074219 13.5 20.074219 13.832031 L 20.074219 17.925781 C 20.074219 18.257812 19.804688 18.523438 19.476562 18.523438 Z M 16.917969 17.324219 L 18.875 17.324219 L 18.875 14.433594 L 16.917969 14.433594 Z M 16.917969 17.324219 "/> <path style=" stroke:none;fill-rule:evenodd;fill:rgb(93.72549%,26.666667%,26.666667%);fill-opacity:1;" d="M 19.476562 26.417969 L 16.316406 26.417969 C 15.984375 26.417969 15.714844 26.144531 15.714844 25.816406 L 15.714844 21.726562 C 15.714844 21.390625 15.984375 21.125 16.316406 21.125 L 19.476562 21.125 C 19.808594 21.125 20.074219 21.390625 20.074219 21.726562 L 20.074219 25.816406 C 20.074219 26.144531 19.804688 26.417969 19.476562 26.417969 Z M 16.917969 25.214844 L 18.875 25.214844 L 18.875 22.324219 L 16.917969 22.324219 Z M 16.917969 25.214844 "/> <path style=" stroke:none;fill-rule:evenodd;fill:rgb(93.72549%,26.666667%,26.666667%);fill-opacity:1;" d="M 19.476562 34.308594 L 16.316406 34.308594 C 15.984375 34.308594 15.714844 34.039062 15.714844 33.707031 L 15.714844 29.617188 C 15.714844 29.289062 15.984375 29.015625 16.316406 29.015625 L 19.476562 29.015625 C 19.808594 29.015625 20.074219 29.289062 20.074219 29.617188 L 20.074219 33.707031 C 20.074219 34.039062 19.804688 34.308594 19.476562 34.308594 Z M 16.917969 33.109375 L 18.875 33.109375 L 18.875 30.214844 L 16.917969 30.214844 Z M 16.917969 33.109375 "/> <path style=" stroke:none;fill-rule:evenodd;fill:rgb(93.72549%,26.666667%,26.666667%);fill-opacity:1;" d="M 27.015625 18.523438 L 23.859375 18.523438 C 23.523438 18.523438 23.257812 18.257812 23.257812 17.925781 L 23.257812 13.832031 C 23.257812 13.5 23.523438 13.234375 23.859375 13.234375 L 27.015625 13.234375 C 27.351562 13.234375 27.617188 13.5 27.617188 13.832031 L 27.617188 17.925781 C 27.617188 18.257812 27.347656 18.523438 27.015625 18.523438 Z M 24.457031 17.324219 L 26.417969 17.324219 L 26.417969 14.433594 L 24.457031 14.433594 Z M 24.457031 17.324219 "/> <path style=" stroke:none;fill-rule:evenodd;fill:rgb(93.72549%,26.666667%,26.666667%);fill-opacity:1;" d="M 27.015625 26.417969 L 23.859375 26.417969 C 23.523438 26.417969 23.257812 26.144531 23.257812 25.816406 L 23.257812 21.726562 C 23.257812 21.390625 23.523438 21.125 23.859375 21.125 L 27.015625 21.125 C 27.351562 21.125 27.617188 21.390625 27.617188 21.726562 L 27.617188 25.816406 C 27.617188 26.144531 27.347656 26.417969 27.015625 26.417969 Z M 24.457031 25.214844 L 26.417969 25.214844 L 26.417969 22.324219 L 24.457031 22.324219 Z M 24.457031 25.214844 "/> <path style=" stroke:none;fill-rule:evenodd;fill:rgb(93.72549%,26.666667%,26.666667%);fill-opacity:1;" d="M 27.015625 34.308594 L 23.859375 34.308594 C 23.523438 34.308594 23.257812 34.039062 23.257812 33.707031 L 23.257812 29.617188 C 23.257812 29.289062 23.523438 29.015625 23.859375 29.015625 L 27.015625 29.015625 C 27.351562 29.015625 27.617188 29.289062 27.617188 29.617188 L 27.617188 33.707031 C 27.617188 34.039062 27.347656 34.308594 27.015625 34.308594 Z M 24.457031 33.109375 L 26.417969 33.109375 L 26.417969 30.214844 L 24.457031 30.214844 Z M 24.457031 33.109375 "/> <path style=" stroke:none;fill-rule:evenodd;fill:rgb(93.72549%,26.666667%,26.666667%);fill-opacity:1;" d="M 57 20.941406 L 53.761719 20.941406 C 53.433594 20.941406 53.164062 20.675781 53.164062 20.339844 L 53.164062 14.851562 C 53.164062 14.515625 53.433594 14.25 53.761719 14.25 L 57 14.25 C 57.328125 14.25 57.601562 14.515625 57.601562 14.851562 L 57.601562 20.34375 C 57.601562 20.675781 57.328125 20.941406 57 20.941406 Z M 54.363281 19.742188 L 56.398438 19.742188 L 56.398438 15.449219 L 54.363281 15.449219 Z M 54.363281 19.742188 "/> <path style=" stroke:none;fill-rule:evenodd;fill:rgb(93.72549%,26.666667%,26.666667%);fill-opacity:1;" d="M 57 29.535156 L 53.761719 29.535156 C 53.433594 29.535156 53.164062 29.265625 53.164062 28.9375 L 53.164062 23.441406 C 53.164062 23.109375 53.433594 22.839844 53.761719 22.839844 L 57 22.839844 C 57.328125 22.839844 57.601562 23.109375 57.601562 23.441406 L 57.601562 28.9375 C 57.601562 29.265625 57.328125 29.535156 57 29.535156 Z M 54.363281 28.335938 L 56.398438 28.335938 L 56.398438 24.042969 L 54.363281 24.042969 Z M 54.363281 28.335938 "/> <path style=" stroke:none;fill-rule:evenodd;fill:rgb(93.72549%,26.666667%,26.666667%);fill-opacity:1;" d="M 57 38.128906 L 53.761719 38.128906 C 53.433594 38.128906 53.164062 37.859375 53.164062 37.53125 L 53.164062 32.035156 C 53.164062 31.703125 53.433594 31.433594 53.761719 31.433594 L 57 31.433594 C 57.328125 31.433594 57.601562 31.703125 57.601562 32.035156 L 57.601562 37.53125 C 57.601562 37.859375 57.328125 38.128906 57 38.128906 Z M 54.363281 36.929688 L 56.398438 36.929688 L 56.398438 32.632812 L 54.363281 32.632812 Z M 54.363281 36.929688 "/> <path style=" stroke:none;fill-rule:evenodd;fill:rgb(93.72549%,26.666667%,26.666667%);fill-opacity:1;" d="M 43.320312 46.417969 L 26.78125 46.417969 C 26.445312 46.417969 26.179688 46.144531 26.179688 45.816406 L 26.179688 42.578125 C 26.179688 42.25 26.445312 41.980469 26.78125 41.980469 L 43.320312 41.980469 C 43.648438 41.980469 43.921875 42.25 43.921875 42.578125 L 43.921875 45.816406 C 43.921875 46.148438 43.652344 46.417969 43.320312 46.417969 Z M 27.378906 45.214844 L 42.722656 45.214844 L 42.722656 43.179688 L 27.378906 43.179688 Z M 27.378906 45.214844 "/> </g> </svg>

<svg xmlns="http://www.w3.org/2000/svg" width="64" height="64"><path d="M50.453 36.52H31.516a.598.598 0 0 1-.598-.598v-3.32c0-.329.266-.602.598-.602h18.941c.332 0 .602.273.602.602v3.32a.604.604 0 0 1-.606.598Zm-18.336-1.2h17.735V33.2H32.117Zm0 0" style="stroke:none;fill-rule:evenodd;fill:#ef4444;fill-opacity:1"/><path d="M48.957 33.195c-.793 0-.598-1.05-.598-1.898 0-.79 1.2-.79 1.2 0 0 .86.191 1.898-.602 1.898ZM46.3 33.195c-.792 0-.6-1.05-.6-1.898 0-.79 1.198-.79 1.198 0 0 .86.196 1.898-.597 1.898ZM43.64 33.195c-.792 0-.597-1.05-.597-1.898 0-.79 1.2-.79 1.2 0 0 .86.19 1.898-.602 1.898ZM40.984 33.195c-.793 0-.601-1.05-.601-1.898 0-.79 1.199-.79 1.199 0 0 .86.195 1.898-.598 1.898ZM38.324 33.195c-.793 0-.597-1.05-.597-1.898 0-.79 1.199-.79 1.199 0 0 .86.191 1.898-.602 1.898ZM35.668 33.195c-.793 0-.602-1.05-.602-1.898 0-.79 1.2-.79 1.2 0 0 .86.195 1.898-.598 1.898ZM33.008 33.195c-.793 0-.598-1.05-.598-1.898 0-.79 1.2-.79 1.2 0 0 .86.19 1.898-.602 1.898ZM48.957 37.82c-.793 0-.598-1.054-.598-1.898 0-.79 1.2-.79 1.2 0 0 .86.191 1.898-.602 1.898ZM46.3 37.82c-.792 0-.6-1.054-.6-1.898 0-.79 1.198-.79 1.198 0 0 .86.196 1.898-.597 1.898ZM43.64 37.82c-.792 0-.597-1.054-.597-1.898 0-.79 1.2-.79 1.2 0 0 .86.19 1.898-.602 1.898ZM40.984 37.82c-.793 0-.601-1.054-.601-1.898 0-.79 1.199-.79 1.199 0 0 .86.195 1.898-.598 1.898ZM38.324 37.82c-.793 0-.597-1.054-.597-1.898 0-.79 1.199-.79 1.199 0 0 .86.191 1.898-.602 1.898ZM35.668 37.82c-.793 0-.602-1.054-.602-1.898 0-.79 1.2-.79 1.2 0 0 .86.195 1.898-.598 1.898ZM33.008 37.82c-.793 0-.598-1.054-.598-1.898 0-.79 1.2-.79 1.2 0 0 .86.19 1.898-.602 1.898Zm0 0" style="stroke:none;fill-rule:evenodd;fill:#ef4444;fill-opacity:1"/><path d="M53.762 43.18H21.504a.6.6 0 0 1-.582-.461l-1.067-4.38h-8.062a.601.601 0 0 1-.602-.597V9.797a.6.6 0 0 1 .602-.602h41.969c.328 0 .601.266.601.602v32.781a.604.604 0 0 1-.601.602Zm-31.785-1.2h31.187V10.395H12.391V37.14h7.937c.277 0 .52.191.586.46Zm0 0" style="stroke:none;fill-rule:evenodd;fill:#ef4444;fill-opacity:1"/><path d="M11.79 43.914a.602.602 0 0 1-.602-.602V5.984H7c-.79 0-.79-1.203 0-1.203h4.79c.331 0 .597.27.597.602v37.93a.598.598 0 0 1-.598.597ZM39.2 25.742c-.34 0-4.005-2.086-4.606-2.41a.592.592 0 0 1-.32-.527V17.19c0-.222.12-.425.32-.53l4.324-2.337a.598.598 0 0 1 .883.531v10.286a.6.6 0 0 1-.602.601Zm-3.723-3.297 3.125 1.688v-8.274l-3.125 1.688Zm0 0" style="stroke:none;fill-rule:evenodd;fill:#ef4444;fill-opacity:1"/><path d="M34.875 23.402h-2.656a.596.596 0 0 1-.602-.597V17.19a.6.6 0 0 1 .602-.601h2.656c.328 0 .602.27.602.601v5.614c0 .328-.27.597-.602.597Zm-2.059-1.199h1.457v-4.41h-1.457ZM43.875 25.508a.6.6 0 0 1-.426-1.024 6.34 6.34 0 0 0 0-8.976c-.554-.555.285-1.41.852-.848 2.926 2.899 2.969 7.64 0 10.664a.587.587 0 0 1-.426.184Zm0 0" style="stroke:none;fill-rule:evenodd;fill:#ef4444;fill-opacity:1"/><path d="M41.922 23.555c-.535 0-.8-.649-.426-1.028a3.577 3.577 0 0 0 0-5.066c-.555-.555.285-1.406.852-.848 1.859 1.844 1.87 4.89 0 6.766a.604.604 0 0 1-.426.176ZM19.477 18.523h-3.16a.598.598 0 0 1-.602-.597v-4.094c0-.332.27-.598.601-.598h3.16c.333 0 .598.266.598.598v4.094c0 .332-.27.597-.597.597Zm-2.559-1.199h1.957v-2.89h-1.957ZM19.477 26.418h-3.16a.604.604 0 0 1-.602-.602v-4.09a.6.6 0 0 1 .601-.601h3.16c.333 0 .598.266.598.602v4.09c0 .328-.27.601-.597.601Zm-2.559-1.203h1.957v-2.89h-1.957ZM19.477 34.309h-3.16a.602.602 0 0 1-.602-.602v-4.09c0-.328.27-.601.601-.601h3.16c.333 0 .598.273.598.601v4.09c0 .332-.27.602-.597.602Zm-2.559-1.2h1.957v-2.894h-1.957ZM27.016 18.523h-3.157a.596.596 0 0 1-.601-.597v-4.094c0-.332.265-.598.601-.598h3.157c.336 0 .601.266.601.598v4.094c0 .332-.27.597-.601.597Zm-2.559-1.199h1.961v-2.89h-1.961ZM27.016 26.418h-3.157a.602.602 0 0 1-.601-.602v-4.09c0-.335.265-.601.601-.601h3.157c.336 0 .601.266.601.602v4.09c0 .328-.27.601-.601.601Zm-2.559-1.203h1.961v-2.89h-1.961ZM27.016 34.309h-3.157a.6.6 0 0 1-.601-.602v-4.09c0-.328.265-.601.601-.601h3.157c.336 0 .601.273.601.601v4.09c0 .332-.27.602-.601.602Zm-2.559-1.2h1.961v-2.894h-1.961ZM57 20.941h-3.238a.599.599 0 0 1-.598-.601v-5.488c0-.336.27-.602.598-.602H57c.328 0 .602.266.602.602v5.492a.601.601 0 0 1-.602.597Zm-2.637-1.199h2.035V15.45h-2.035ZM57 29.535h-3.238a.6.6 0 0 1-.598-.598v-5.496c0-.332.27-.601.598-.601H57c.328 0 .602.27.602.601v5.497a.604.604 0 0 1-.602.597Zm-2.637-1.2h2.035v-4.292h-2.035ZM57 38.129h-3.238a.6.6 0 0 1-.598-.598v-5.496c0-.332.27-.601.598-.601H57c.328 0 .602.27.602.601v5.496a.604.604 0 0 1-.602.598Zm-2.637-1.2h2.035v-4.296h-2.035ZM43.32 46.418H26.781a.602.602 0 0 1-.601-.602v-3.238c0-.328.265-.598.601-.598h16.54c.327 0 .6.27.6.598v3.238c0 .332-.269.602-.6.602ZM27.38 45.215h15.344V43.18H27.379Zm0 0" style="stroke:none;fill-rule:evenodd;fill:#ef4444;fill-opacity:1"/></svg>
